local/share/icons/dracula-icons-main/scalable/apps/signal-desktop.svg

<?xml version="1.0" encoding="UTF-8"?>
<svg xmlns="http://www.w3.org/2000/svg" xmlns:xlink="http://www.w3.org/1999/xlink" width="64" height="64" viewBox="0 0 64 64">
<path fill-rule="nonzero" fill="rgb(9.019608%, 60%, 92.156863%)" fill-opacity="1" d="M 8.464844 1.324219 C 12.410156 1.324219 15.609375 4.519531 15.609375 8.464844 C 15.609375 12.410156 12.410156 15.609375 8.464844 15.609375 C 4.519531 15.609375 1.324219 12.410156 1.324219 8.464844 C 1.324219 4.519531 4.519531 1.324219 8.464844 1.324219 Z M 8.464844 1.324219 "/>
<path fill-rule="nonzero" fill="rgb(97.647059%, 97.647059%, 97.647059%)" fill-opacity="1" d="M 8.464844 5.015625 C 6.5625 5.015625 5.015625 6.402344 5.015625 8.117188 C 5.015625 8.941406 5.382812 9.730469 6.035156 10.3125 L 6.121094 11.785156 C 6.125 11.835938 6.152344 11.878906 6.195312 11.902344 C 6.238281 11.921875 6.292969 11.921875 6.335938 11.898438 L 7.6875 11.132812 C 7.941406 11.1875 8.203125 11.214844 8.464844 11.21875 C 10.371094 11.21875 11.917969 9.828125 11.917969 8.117188 C 11.917969 6.402344 10.371094 5.015625 8.464844 5.015625 Z M 8.464844 5.015625 "/>
<path fill-rule="nonzero" fill="rgb(70.588235%, 86.27451%, 95.294118%)" fill-opacity="1" d="M 8.25 3.988281 L 8.261719 4.277344 C 8.703125 4.246094 9.144531 4.304688 9.574219 4.402344 L 9.636719 4.121094 C 9.171875 4.003906 8.492188 3.960938 8.25 3.988281 Z M 6.53125 4.382812 L 6.644531 4.644531 C 7.019531 4.480469 7.347656 4.40625 7.703125 4.332031 L 7.667969 4.046875 C 7.261719 4.101562 6.851562 4.25 6.53125 4.382812 Z M 10.105469 4.5625 C 10.453125 4.71875 10.800781 4.898438 11.085938 5.085938 L 11.246094 4.847656 C 10.90625 4.621094 10.535156 4.433594 10.199219 4.292969 C 10.175781 4.382812 10.136719 4.472656 10.105469 4.5625 Z M 5.078125 5.382812 L 5.28125 5.585938 C 5.542969 5.3125 5.851562 5.09375 6.144531 4.898438 L 6.003906 4.644531 C 5.652344 4.855469 5.328125 5.136719 5.078125 5.382812 Z M 11.507812 5.433594 C 11.796875 5.703125 12.011719 6.007812 12.195312 6.292969 L 12.449219 6.15625 C 12.25 5.800781 11.957031 5.476562 11.710938 5.230469 Z M 4.160156 6.910156 L 4.433594 6.988281 C 4.542969 6.632812 4.71875 6.324219 4.929688 6.007812 L 4.695312 5.847656 C 4.441406 6.195312 4.300781 6.539062 4.160156 6.910156 Z M 12.4375 6.796875 C 12.582031 7.140625 12.640625 7.503906 12.664062 7.871094 L 12.953125 7.855469 C 12.953125 7.449219 12.835938 7.066406 12.703125 6.691406 Z M 4.039062 8.675781 L 4.324219 8.628906 C 4.246094 8.265625 4.269531 7.898438 4.308594 7.53125 L 4.023438 7.484375 C 3.949219 7.878906 3.976562 8.28125 4.039062 8.675781 Z M 12.351562 9.484375 L 12.617188 9.59375 C 12.789062 9.210938 12.878906 8.800781 12.941406 8.445312 C 12.84375 8.433594 12.75 8.425781 12.65625 8.414062 C 12.617188 8.789062 12.492188 9.140625 12.351562 9.484375 Z M 4.191406 9.261719 C 4.34375 9.640625 4.546875 10.003906 4.753906 10.308594 C 4.820312 10.242188 4.902344 10.191406 4.976562 10.132812 C 4.75 9.835938 4.59375 9.5 4.457031 9.152344 Z M 11.347656 10.78125 L 11.53125 11.003906 C 11.84375 10.753906 12.097656 10.445312 12.320312 10.117188 L 12.082031 9.957031 C 11.886719 10.28125 11.585938 10.558594 11.347656 10.78125 Z M 5.140625 10.75 L 5.265625 10.871094 L 5.316406 11.738281 L 5.601562 11.722656 L 5.546875 10.746094 L 5.34375 10.546875 Z M 9.894531 11.582031 L 9.984375 11.855469 C 10.414062 11.722656 10.710938 11.550781 11.058594 11.351562 L 10.898438 11.113281 C 10.578125 11.320312 10.203125 11.472656 9.894531 11.582031 Z M 6.582031 12.195312 L 6.722656 12.445312 L 7.515625 11.996094 L 7.652344 12.019531 L 7.695312 11.734375 L 7.460938 11.695312 Z M 8.25 11.796875 L 8.234375 12.082031 C 8.667969 12.109375 9.042969 12.058594 9.417969 12.003906 L 9.351562 11.722656 C 8.988281 11.796875 8.621094 11.808594 8.25 11.796875 Z M 5.347656 12.3125 L 5.371094 12.675781 C 5.367188 12.816406 5.421875 12.90625 5.539062 12.945312 C 5.660156 12.984375 5.953125 12.882812 6.222656 12.726562 L 6.082031 12.476562 C 5.964844 12.585938 5.722656 12.710938 5.679688 12.683594 C 5.632812 12.65625 5.640625 12.410156 5.636719 12.296875 Z M 5.347656 12.3125 "/>
</svg>

<svg width="64" height="64" version="1.1" viewBox="0 0 16.933 16.933" xmlns="http://www.w3.org/2000/svg">
 <rect x="1.3229" y="1.3229" width="14.287" height="14.287" rx="7.1436" ry="7.1436" fill="#1799eb" stroke-width=".96424"/>
 <path d="m8.4665 5.0155a3.451 3.1011 0 0 0-3.451 3.1009 3.451 3.1011 0 0 0 1.0179 2.1963l0.08687 1.4735a0.1435 0.13926 0 0 0 0.21523 0.11256l1.3514-0.76475a3.451 3.1011 0 0 0 0.77965 0.0832 3.451 3.1011 0 0 0 3.451-3.1008 3.451 3.1011 0 0 0-3.451-3.1009z" fill="#f9f9f9" stroke-width=".3451"/>
 <path d="m8.2498 3.9891 0.012783 0.28726c0.44159-0.031749 0.88125 0.026573 1.3106 0.12572l0.064787-0.27981c-0.46635-0.11947-1.1472-0.1623-1.3881-0.13317zm-1.7195 0.39273 0.11405 0.26359c0.37637-0.16548 0.70197-0.23843 1.0602-0.31294l-0.038465-0.28523c-0.40432 0.055941-0.81278 0.20161-1.1358 0.33458zm3.5759 0.18042c0.34548 0.15678 0.69428 0.33616 0.97854 0.52521l0.15994-0.2386c-0.33711-0.22722-0.7096-0.41343-1.0447-0.55762-0.0246 0.092626-0.06249 0.18104-0.0938 0.27101zm-5.0285 0.82055 0.20178 0.20482c0.26348-0.27677 0.57359-0.49539 0.86382-0.68941l-0.13767-0.2521c-0.35366 0.20803-0.6784 0.49094-0.92794 0.73669zm6.4299 0.051351c0.28812 0.27008 0.50219 0.57176 0.68903 0.85972l0.25307-0.13587c-0.19923-0.3588-0.49256-0.68182-0.74035-0.92863zm-7.3493 1.4748 0.27602 0.07907c0.10843-0.35639 0.28287-0.66304 0.49671-0.98068l-0.23755-0.16089c-0.25037 0.34728-0.39424 0.69086-0.53515 1.0625zm8.28-0.11084c0.1447 0.34103 0.20123 0.70601 0.22743 1.0726l0.28682-0.016213c0.0014-0.40415-0.1182-0.78783-0.24839-1.1645zm-8.3981 1.8776 0.28344-0.048c-0.079291-0.36256-0.055392-0.73082-0.01553-1.0956l-0.28277-0.047974c-0.07457 0.39556-0.048987 0.79722 0.01484 1.1916zm8.3128 0.80902 0.26589 0.10881c0.1715-0.38407 0.26142-0.79398 0.3206-1.1483-0.09573-0.013109-0.18971-0.020009-0.28479-0.031057-0.03753 0.37523-0.16087 0.72509-0.3017 1.0713zm-8.1624-0.22373c0.15146 0.37972 0.35787 0.7447 0.56221 1.049 0.068302-0.067813 0.15032-0.11833 0.22541-0.17707-0.22818-0.29751-0.38282-0.63309-0.521-0.97867zm7.1581 1.5187 0.18154 0.22304c0.3138-0.24737 0.56635-0.55637 0.79094-0.88405l-0.23755-0.16085c-0.19606 0.32409-0.4966 0.59917-0.73493 0.82186zm-6.2073-0.0283 0.1235 0.12164 0.050616 0.86514 0.28681-0.0169-0.057356-0.97529-0.20178-0.19871zm4.7545 0.82931 0.089087 0.27305c0.42789-0.13193 0.72416-0.30158 1.0724-0.50288l-0.15995-0.2386c-0.32075 0.20661-0.693 0.36087-1.0015 0.46844zm-3.3149 0.61435 0.14172 0.2501 0.79228-0.4488 0.13565 0.02174 0.045222-0.28454-0.23485-0.03716zm1.6703-0.40011-0.016187 0.28726c0.43317 0.02898 0.80595-0.02313 1.183-0.07913l-0.064787-0.2805c-0.36319 0.07492-0.73313 0.08645-1.102 0.07237zm-2.9019 0.51703 0.021604 0.36567c-0.00277 0.13921 0.050212 0.23042 0.16939 0.26763 0.11918 0.03724 0.41126-0.06288 0.68296-0.21693l-0.14172-0.2501c-0.118 0.1087-0.35942 0.23184-0.40356 0.20482-0.044131-0.02692-0.036436-0.27442-0.04184-0.38796z" fill="#b4dcf3" stroke-width=".3451"/>
</svg>
